X:1
T:Knaves Will Be Knaves
M:4/4
L:1/8
K:F
 A2| d2 dd ^cc ^cc| dd dd A2 AA| d2 dd ^cc ^cc| d2 d2 A3 G| F2 FF c2 c2|\
 c2 cB A3 G| FF GA B2 AG| A2 ^c2 d4|
